Newaita/actions/16/folder-new.svg

<svg height="16" viewBox="0 0 16 16" width="16" xmlns="http://www.w3.org/2000/svg"><g fill="#424242"><path d="m10.253906 11.039062h3.96875c.183594 0 .332032.148438.332032.332032v.660156c0 .183594-.148438.332031-.332032.332031h-3.96875c-.183594 0-.332031-.148437-.332031-.332031v-.660156c0-.183594.148437-.332032.332031-.332032zm0 0"/><path d="m12.898438 9.71875v3.96875c0 .179688-.148438.328125-.328126.328125h-.664062c-.179688 0-.328125-.148437-.328125-.328125v-3.96875c0-.183594.148437-.332031.328125-.332031h.664062c.179688 0 .328126.148437.328126.332031zm0 0"/><path d="m6.898438 2.113281c-.5625 0-1.160157.03125-1.734376.316407-.5625.28125-.984374.863281-1.132812 1.664062h-1.386719c-.730469 0-1.320312.589844-1.320312 1.324219v7.277343c0 .730469.589843 1.320313 1.320312 1.320313h5.957031v-1.320313h-5.292968c-.367188 0-.664063-.296874-.664063-.664062v-5.953125c0-.367187.296875-.660156.664063-.660156h.722656c.148438.796875.570312 1.382812 1.132812 1.664062.703126.351563 1.449219.316407 2.113282.316407h5.953125v.003906h1.324219v-.578125c.007812-.054688.007812-.113281 0-.171875v-1.234375c0-.734375-.589844-1.324219-1.324219-1.324219v1.988281h-5.953125c-.664063 0-1.238282-.035156-1.523438-.179687-.289062-.140625-.464844-.300782-.464844-1.148438 0-.84375.175782-1.003906.464844-1.144531.285156-.144531.859375-.179687 1.523438-.179687.238281.003906.457031-.121094.578125-.328126.121093-.203124.121093-.457031 0-.664062-.121094-.203125-.339844-.328125-.578125-.324219-.125 0-.25 0-.378906 0zm0 0"/><path d="m7.277344 2.109375v1.324219h5.292968c.363282 0 .660157.292968.660157.660156v3.96875h1.324219v-4.628906c0-.734375-.589844-1.324219-1.324219-1.324219zm0 0"/></g></svg>

<?xml version="1.0" encoding="UTF-8"?>
<svg xmlns="http://www.w3.org/2000/svg" xmlns:xlink="http://www.w3.org/1999/xlink" width="16px" height="16px" viewBox="0 0 16 16" version="1.1">
<g id="surface1">
<path style=" stroke:none;fill-rule:nonzero;fill:rgb(25.882354%,25.882354%,25.882354%);fill-opacity:1;" d="M 10.253906 11.039062 L 14.222656 11.039062 C 14.40625 11.039062 14.554688 11.1875 14.554688 11.371094 L 14.554688 12.03125 C 14.554688 12.214844 14.40625 12.363281 14.222656 12.363281 L 10.253906 12.363281 C 10.070312 12.363281 9.921875 12.214844 9.921875 12.03125 L 9.921875 11.371094 C 9.921875 11.1875 10.070312 11.039062 10.253906 11.039062 Z M 10.253906 11.039062 "/>
<path style=" stroke:none;fill-rule:nonzero;fill:rgb(25.882354%,25.882354%,25.882354%);fill-opacity:1;" d="M 12.898438 9.71875 L 12.898438 13.6875 C 12.898438 13.867188 12.75 14.015625 12.570312 14.015625 L 11.90625 14.015625 C 11.726562 14.015625 11.578125 13.867188 11.578125 13.6875 L 11.578125 9.71875 C 11.578125 9.535156 11.726562 9.386719 11.90625 9.386719 L 12.570312 9.386719 C 12.75 9.386719 12.898438 9.535156 12.898438 9.71875 Z M 12.898438 9.71875 "/>
<path style=" stroke:none;fill-rule:nonzero;fill:rgb(25.882354%,25.882354%,25.882354%);fill-opacity:1;" d="M 6.898438 2.113281 C 6.335938 2.113281 5.738281 2.144531 5.164062 2.429688 C 4.601562 2.710938 4.179688 3.292969 4.03125 4.09375 L 2.644531 4.09375 C 1.914062 4.09375 1.324219 4.683594 1.324219 5.417969 L 1.324219 12.695312 C 1.324219 13.425781 1.914062 14.015625 2.644531 14.015625 L 8.601562 14.015625 L 8.601562 12.695312 L 3.308594 12.695312 C 2.941406 12.695312 2.644531 12.398438 2.644531 12.03125 L 2.644531 6.078125 C 2.644531 5.710938 2.941406 5.417969 3.308594 5.417969 L 4.03125 5.417969 C 4.179688 6.214844 4.601562 6.800781 5.164062 7.082031 C 5.867188 7.433594 6.613281 7.398438 7.277344 7.398438 L 13.230469 7.398438 L 13.230469 7.402344 L 14.554688 7.402344 L 14.554688 6.824219 C 14.5625 6.769531 14.5625 6.710938 14.554688 6.652344 L 14.554688 5.417969 C 14.554688 4.683594 13.964844 4.09375 13.230469 4.09375 L 13.230469 6.082031 L 7.277344 6.082031 C 6.613281 6.082031 6.039062 6.046875 5.753906 5.902344 C 5.464844 5.761719 5.289062 5.601562 5.289062 4.753906 C 5.289062 3.910156 5.464844 3.75 5.753906 3.609375 C 6.039062 3.464844 6.613281 3.429688 7.277344 3.429688 C 7.515625 3.433594 7.734375 3.308594 7.855469 3.101562 C 7.976562 2.898438 7.976562 2.644531 7.855469 2.4375 C 7.734375 2.234375 7.515625 2.109375 7.277344 2.113281 C 7.152344 2.113281 7.027344 2.113281 6.898438 2.113281 Z M 6.898438 2.113281 "/>
<path style=" stroke:none;fill-rule:nonzero;fill:rgb(25.882354%,25.882354%,25.882354%);fill-opacity:1;" d="M 7.277344 2.109375 L 7.277344 3.433594 L 12.570312 3.433594 C 12.933594 3.433594 13.230469 3.726562 13.230469 4.09375 L 13.230469 8.0625 L 14.554688 8.0625 L 14.554688 3.433594 C 14.554688 2.699219 13.964844 2.109375 13.230469 2.109375 Z M 7.277344 2.109375 "/>
</g>
</svg>
